X:16494
T:The Blarney Pilgrim
M:6/8
R:Jig 
A:Ireland
K:G
"G"~D3 DEG|"D"A2G ABc|"G"BAG "Em"AGE|GEA "D"GED|
"G"~D3 DEG|"D"A2G ABc |"G"BAG "Em"AGE|GED "D"D3:|
"G"ded dBG|"C"AGA "G"BGE|ded dBG|"C"ABA "G"GBd|
g2e dBG|"C"AGA "G"BGD|"Em"~B3 "D"AGE|~G3 GFG:|
"D"ADD "G"BDD|"D"ADD ABc|"G"BAG "Em"AGE|GEA "D"GED|
ADD "G"BDD|"D"ADD ABc |"G"BAG "Em"AGE|GED "D"D3:|
